X:1
T:A d'una fresca riva
T:Luca Marenzio
T:Source : Il terzo libro delle Villanelle a tre voci---Venetia---G.Vincenzi---1587. Editor : André Vierendeels (02/06/17).
T:Notes : Original clefs : G2, C1, F3 Editorial accidentals above the staff m 15 in S 2 : original has A-B-C-B-C-B (2 quarters too many)
T:A d'una fresca riva
T:©
T:©
T:©
C:Luca Marenzio
Z:©
%%score [ 1 2 3 ]
L:1/8
Q:1/4=120
M:4/4
K:F
V:1 treble nm="Soprano 1" snm="S 1"
V:2 treble nm="Soprano 2" snm="S 2"
V:3 bass nm="Bass" snm="B"
V:1
"^1)" z4 d4 | d3 d d2 c2 | B4 A2 A2 | B2 B2 c2 c2 | d2 e2 f4- | f2 d2 c4 |[M:2/4] B4 :: %7
w: A|d'u- na fres- ca|ri- va, gui-|dom- mi'A- mor dov'|e- ra la|_ mia di-|va,|
w: S'à|me gli'oc- chi vol-|ge- a, in-|vi- di'à gli'al- tri'a-|man- ti'el- la|_ por- ge-|a|
[M:4/4] z2 f4 g2 | e2 ed e2 f2 | d2 c2 d4- | d4 c4 | z2 g2 fede | f2 f2 f2 f2 | f6 ed | %14
w: che con|gli'oc- chi col crin e'l|vis' a- dor-|* no,|fea na- scer fior e|va gh'her- bet- te'in-|tor- * *|
w: che co'|sguar- di, con ri- si'e|con pa- ro-|* le,|e- r'à me sol dol-|cis- si- mo il|so- * *|
 c2 d2 _e2 d2 | c2 B2 A2 G2 | A4 !fermata!G4 :| %17
w: ||* no.|
w: ||* le.|
V:2
"^2)""^1)" z4 B4 | B3 B B2 A2 | G4 ^F2 F2 | G2 G2 A2 A2 | B2 A2 F2 G2 | A2 B4 A2 |[M:2/4] B4 :: %7
w: A|d'u- na fres- ca|ri- va, gui-|dom- mi'A- mor dov'|e- ra la mia|di- * *|va,|
w: S'a-|pria le chio- me|bion- de, gar-|rian gli'an- gel- li'e|fer- ma- van l'on-||de,|
[M:4/4] z2 d4 d2 | c2 c=B c2 A2 | =B2 c4 BA | =B4 c4 |"^b" z2 B2 dcBc | d2 d2 d2 d2 | d6 cB | %14
w: che con|gli'oc- chi col crin e'l|vis' a- * *|dor- no,|fea na- sche fior e|va- gh'her- bet- te'in|tor- * *|
w: e se|gio- i'al mio cor' et-|a'il lor _ _|can- to,|a'ogn' al- tro'a- man- t'e-|ra ca- gion di|pian- * *|
 A2 B2 c2 B2 | A2 G2 ^F2 G2- | G2 ^F2 !fermata!G4 :| %17
w: ||* * no.|
w: ||* * to.|
V:3
"^3)""^1)" B,8 | B,3 B, B,2 F,2 | G,4 D,2 D,2 | G,2 G,2 F,2 F,2 | B,,2 C,2 D,2 E,2 | F,8 | %6
w: A|d'u- na fres- ca|ri- va, gui-|dom- mi'A- mor dov'|e- ra la mia|di-|
w: Par|ti- ro poi gli'a-|man- ti, vo-|sto, ch'in van spar-|gan so- spi- ri'e|pian-|
[M:2/4] B,,4 ::[M:4/4] z2 B,4 G,2 | A,2 A,G, A,2 F,2 | G,2 A,2 G,4- | G,4 C,2 C2 | %11
w: va,|che con|gli'oc- chi col crin e'l|vis' a- dor-|* no, fea|
w: ti,|co- si'al|fin ne le brac- ci'à|lo mio be-|* ne, die-|
"^b" B,A,G,A, B,2 B,2 | B,2 B,2 B,4- | B,2 A,G, F,4- |"^b" F,2 E,D, C,4- | C,4 D,4- | %16
w: ne- sce fior e vagh' her-|bet- te'in- tor-||||
w: di prin- ci- pio'e fi- ne'à|le mie pe-||||
 D,4 !fermata!G,4 :| %17
w: * no.|
w: * ne.|

